src/assets/icons/work-2.svg

<svg width="47" height="47" viewBox="0 0 47 47" fill="none" xmlns="http://www.w3.org/2000/svg">
<path fill-rule="evenodd" clip-rule="evenodd" d="M17.625 5.875C11.1357 5.875 5.875 11.1357 5.875 17.625C5.875 24.1143 11.1357 29.375 17.625 29.375C24.1143 29.375 29.375 24.1143 29.375 17.625C29.375 11.1357 24.1143 5.875 17.625 5.875ZM2.9375 17.625C2.9375 9.51332 9.51332 2.9375 17.625 2.9375C25.7367 2.9375 32.3125 9.51332 32.3125 17.625C32.3125 25.7367 25.7367 32.3125 17.625 32.3125C9.51332 32.3125 2.9375 25.7367 2.9375 17.625Z" fill="white"/>
<path fill-rule="evenodd" clip-rule="evenodd" d="M29.375 17.625C22.8857 17.625 17.625 22.8857 17.625 29.375C17.625 35.8643 22.8857 41.125 29.375 41.125C35.8643 41.125 41.125 35.8643 41.125 29.375C41.125 22.8857 35.8643 17.625 29.375 17.625ZM14.6875 29.375C14.6875 21.2633 21.2633 14.6875 29.375 14.6875C37.4867 14.6875 44.0625 21.2633 44.0625 29.375C44.0625 37.4867 37.4867 44.0625 29.375 44.0625C21.2633 44.0625 14.6875 37.4867 14.6875 29.375Z" fill="white"/>
<path fill-rule="evenodd" clip-rule="evenodd" d="M21.4517 17.0454C22.0253 16.4718 22.9552 16.4718 23.5288 17.0454L29.9546 23.4712C30.5282 24.0448 30.5282 24.9747 29.9546 25.5483C29.381 26.1219 28.451 26.1219 27.8775 25.5483L21.4517 19.1225C20.8781 18.549 20.8781 17.619 21.4517 17.0454Z" fill="white"/>
<path fill-rule="evenodd" clip-rule="evenodd" d="M17.0454 21.4517C17.619 20.8781 18.549 20.8781 19.1225 21.4517L25.5483 27.8775C26.1219 28.451 26.1219 29.381 25.5483 29.9546C24.9747 30.5282 24.0448 30.5282 23.4712 29.9546L17.0454 23.5288C16.4718 22.9552 16.4718 22.0253 17.0454 21.4517Z" fill="white"/>
</svg>

<svg width="47" height="47" fill="none" xmlns="http://www.w3.org/2000/svg"><path fill-rule="evenodd" clip-rule="evenodd" d="M17.625 5.875c-6.49 0-11.75 5.26-11.75 11.75s5.26 11.75 11.75 11.75 11.75-5.26 11.75-11.75-5.26-11.75-11.75-11.75zM2.937 17.625c0-8.112 6.576-14.688 14.688-14.688 8.112 0 14.688 6.576 14.688 14.688 0 8.112-6.576 14.688-14.688 14.688-8.112 0-14.688-6.576-14.688-14.688z" fill="#fff"/><path fill-rule="evenodd" clip-rule="evenodd" d="M29.375 17.625c-6.49 0-11.75 5.26-11.75 11.75s5.26 11.75 11.75 11.75 11.75-5.26 11.75-11.75-5.26-11.75-11.75-11.75zm-14.688 11.75c0-8.112 6.576-14.688 14.688-14.688 8.112 0 14.688 6.576 14.688 14.688 0 8.112-6.576 14.688-14.688 14.688-8.112 0-14.688-6.576-14.688-14.688z" fill="#fff"/><path fill-rule="evenodd" clip-rule="evenodd" d="M21.452 17.045a1.469 1.469 0 0 1 2.077 0l6.426 6.426a1.469 1.469 0 1 1-2.077 2.077l-6.426-6.425a1.469 1.469 0 0 1 0-2.078zM17.045 21.452a1.469 1.469 0 0 1 2.077 0l6.426 6.425a1.469 1.469 0 1 1-2.077 2.078l-6.426-6.426a1.469 1.469 0 0 1 0-2.077z" fill="#fff"/></svg>
